!!!COM: Beethoven, Ludwig van
!!!CDT: 1770///-1827///
!!!OTL: Piano Sonata no. 27 in E minor
!!!ODT: 1814///
!!!ODE: au Comte Lichnowsky
!!!OPS: 90
!!!OMV: 1
!!!OMD@@GER: Mit Lebhaftigkeit und durchaus mit Empfindung und Ausdruck
!!!OMD@ENG: With liveliness and with feeling and expression throughout
**kern	**kern	**dynam
*staff2	*staff1	*staff1
*Ipiano	*Ipiano	*Ipiano
*clefF4	*clefG2	*clefG2
*k[f#]	*k[f#]	*k[f#]
*e:	*e:	*e:
*M3/4	*M3/4	*M3/4
*MM144	*MM144	*MM144
8EE/ 8E/	8G/ 8B/ 8e/ 8g/	.
8r	8r	.
=1	=1	=1
*	*^	*
2EE/ 2E/	(4.g/	2G\ 2B\ 2e\	.
.	8f#/	.	.
8EE/ 8E/	8G/ 8e/)	4r	.
8r	8r	.	.
*	*v	*v	*
=2	=2	=2
8DD/ 8D/	8A/ 8f#/ 8a/	.
8r	8r	.
4r	4r	.
4d\	4f#/ 4a/	p
=3	=3	=3
4.c\ 4.d\	4.f#/ (4.a/	.
8B\ 8d\	8g/)	.
4A'\ 4c'\	(4f#'/ 4a'/	.
=4	=4	=4
4G'\ 4B'\	4g'/) 4b'/	.
4r	4r	.
8GG\ 8G\	8B/ 8d/ 8g/ 8b/	f
8r	8r	.
=5	=5	=5
*	*^	*
2GG\ 2G\	(4.b/	2B\ 2d\ 2g\	.
.	8a/	.	.
8GGG/ 8GG/	8B/ 8g/)	4r	.
8r	8r	.	.
*	*v	*v	*
=6	=6	=6
8FFF#/ 8FF#/	8c#/ 8a#/ 8cc#/	.
8r	8r	.
4r	4r	.
*clefG2	*	*
4f#/	4a#/ 4cc#/	p
=7	=7	=7
4.e/ 4.f#/	4.a#\ (4.cc#\	.
8d/ 8f#/	8b\)	.
4c#'/ 4e'/	4a#'\ (4cc#'\	.
=8	=8	=8
4B'/ 4d'/	4b'\ 4dd'\)	.
4r	4r	.
4r	[4dd\	.
=9	=9	=9
*^	*	*
*	*^	*	*
2.g/	2d/	2.B\	4dd\]	.
.	.	.	(4gg\	.
*	*v	*v	*	*
.	[4e/	4ee\	.
=10	=10	=10	=10
2g/	2A\ 2e\]	4dd\	.
.	.	4ccn\)	.
[4f#/	(4e-\	[4cc\	.
=11	=11	=11	=11
2f#/]	2d\)	4cc\]	.
.	.	4aa\	.
(4f#/	4r	[4cc\	.
*v	*v	*	*
=12	=12	=12
2g/	4cc\]	.
.	4b\	.
*clefF4	*	*
4G\	[4b\	.
=13	=13	=13
2E\	4b\]	>
.	4g/	.
4e\	[4g/	.
=14	=14	=14
2c\	4g/]	.
.	4e/	.
[4C/)	[4e/	.
=15	=15	=15
2.CC/ 2.C/]	4e/]	pp
*	*clefF4	*clefF4
.	(4G\	.
.	4E\)	.
=16	=16	=16
2BBB;/ 2FF#;/ 2BB;/	2D#;\ 2B;\	.
*	*clefG2	*clefG2
4r	[4ee\ [4eee\	.
=17	=17	=17
*^	*	*
[2.E/ 2.B/	2.GG\	4.ee\] (4.eee\]	.
.	.	8dd#\ 8ddd#\	.
.	.	4ee\ 4eee\)	.
=18	=18	=18	=18
2.E/]	2AA\	2c/ 2e/ 2f#/	<
.	4AA#\	4c#/ 4e/ 4f#/	.
*v	*v	*	*
=19	=19	=19
*	*^	*
2.BB/	(4.f#/	2.A\ 2.d#\	>
.	8g/L	.	.
.	8a/	.	.
.	8g/J	.	.
*	*v	*v	*
=20	=20	=20
2C\ (2G\	4f#/	>
.	4e/)	.
8BB/L	[4ee\ [4eee\	<
8AA/J	.	.
=21	=21	=21
*^	*	*
2.E/ 2.B/)	2GG\	4.ee\] 4.eee\]	.
.	.	8dd#\ 8ddd#\	.
.	4GG#\	4ee\ 4eee\	.
*v	*v	*	*
=22	=22	=22
2AA/	2c/ 2e/ 2f#/	.
4AA#/	4c#/ 4e/ 4f#/	.
=23	=23	=23
*	*^	*
2.BBB/ 2.BB/	(4.f#/	2.A\ 2.d#\	.
.	8a/L	.	.
.	8g/	.	.
.	8f#/J	.	.
*	*v	*v	*
=24	=24	=24
4EE/ 4E/	4G/ 4e/)	.
4r;	4r;	.
4BBB/ 4BB/	4B/ 4b/	pp
=25	=25	=25
2BBB/ 2BB/	2B/ 2b/	.
4EE/ 4E/	4e\ 4ee\	.
=26	=26	=26
2EE/ 2E/	2e\ 2ee\	.
4BB\ 4B\	4b\ 4bb\	.
=27	=27	=27
2BB\ 2B\	2b\ 2bb\	.
4E\ 4e\	4ee\ 4eee\	.
=28	=28	=28
2E\ 2e\	2ee\ 2eee\	.
*	*8va	*
8G\ 8B\ 8d\ 8fn\	8ffn\ 8bb\ 8ddd\ 8fffn\	f
8r	8r	.
=29	=29	=29
4.G\ 4.B\ 4.d\ 4.fn\	4.ffn\ 4.bb\ 4.ddd\ 4.fffn\	.
8r	16eee\LL	.
.	16ddd\JJ	.
4r	16cccn\LL	.
.	16bb\	.
.	16aa\	.
.	16gg\JJ	.
*	*X8va	*
=30	=30	=30
4r	16ffn\LL	.
.	16ee\	.
.	16dd\	.
.	16cc\JJ	.
4r	(24b/LL	.
.	24a/	.
.	24g/	.
.	24fn/	.
.	24e/	.
.	24d/JJ)	.
20c/LL	4r	.
20B/	.	.
20A/	.	.
20G/	.	.
20F#/JJ	.	.
=31	=31	=31
4r	8G'/	.
.	8r	.
4r	4r	.
8BBB/ 8BB/	8G/ 8d/ 8fn/	.
8r	8r	.
=32	=32	=32
8CC/ 8C/	8G/ 8c/ 8e/	.
8r	8r	.
4r	4r	.
8E\ 8G#\ 8B\ 8d\	8dd\ 8gg#\ 8bb\ 8ddd\	.
8r	8r	.
=33	=33	=33
4.E\ 4.G#\ 4.B\ 4.d\	4.dd\ 4.gg#\ 4.bb\ 4.ddd\	.
8r	16ccc\LL	.
.	16bb\JJ	.
4r	16aa\LL	.
.	16gg#\	.
.	16ff#\	.
.	16ee\JJ	.
=34	=34	=34
2.r	16dd/LL	.
.	16cc/	.
.	16b/	.
.	16a/JJ	.
.	(24g#/LL	.
.	24f#/	.
.	24e/	.
.	24d/	.
.	24c/	.
.	24B/JJ)	.
*	*clefF4	*clefF4
.	(20A\LL	.
.	20G#\	.
.	20F#\	.
.	20E\	.
.	20D#\JJ)	.
=35	=35	=35
4r	4E\	.
4r	4r	.
8GGG#/ 8GG#/	8E\ 8B\ 8dn\	.
8r	8r	.
=36	=36	=36
8AAA/ 8AA/	8E\ 8A\ 8c\	.
8r	8r	.
4r	4r	.
*	*clefG2	*clefG2
4B-\	4bb-\	p
=37	=37	=37
[2.B-\	(4.bb-\	.
.	16aa\LL	.
.	16gg\JJ	.
.	16ffn\LL	.
.	16ee-\	.
.	16dd\	.
.	16cc\JJ	.
=38	=38	=38
4B-\]	16b-/LL	.
.	16a/	.
.	16g/	.
.	16f#/JJ	.
4r	12e-/L	.
.	12d/	.
.	12c/J	.
4r	4B-/)	.
*clefG2	*	*
=39	=39	=39
4r	[2.B-/	.
4r	.	.
4e/	.	.
=40	=40	=40
2e/	2B-/]	.
4A#/ 4e/	4g/	.
=41	=41	=41
2A#/ 2e/	2g/	.
4A#/ 4e/	4g/ 4cc#/	.
=42	=42	=42
2A#/ 2e/	2g/ 2cc#/	.
4A#/ 4c#/ 4e/ 4g/	4cc#\ 4ee\ 4gg\	.
=43	=43	=43
*^	*^	*
2g/	[2.A#\ [2.c#\ [2.e\	2gg/	[2.cc#\ [2.ee\	<
4f#/	.	4ff#/	.	.
=44	=44	=44	=44	=44
2e#/	2A#\] 2c#\] 2e\]	2ee#/	2cc#\] 2ee\]	.
4f#/	4A#\ 4c\ 4en\	4ff#/	4cc#\ 4een\	.
*v	*v	*	*	*
*	*v	*v	*
=45	=45	=45
8B/ 8d/ 8f#/L	2.b\ 2.dd\ 2.ff#\	f
8B/ 8d/ 8f#/	.	.
8B/ 8d/ 8f#/	.	.
8B/ 8d/ 8f#/	.	.
8B/ 8d/ 8f#/	.	.
8B/ 8d/ 8f#/J	.	.
*clefF4	*	*
=46	=46	=46
8D\ 8F#\ 8B\L	2.b\ 2.ff#\ 2.bb\	.
8D\ 8F#\ 8B\	.	.
8D\ 8F#\ 8B\	.	.
8D\ 8F#\ 8B\	.	.
8D\ 8F#\ 8B\	.	.
8D\ 8F#\ 8B\J	.	.
=47	=47	=47
8D#\ 8F#\ 8A\L	8f#/ 8b/	.
8D#\ 8F#\ 8A\	8r	.
8E\ 8G\	8cn/ 8ccn/	.
8E\ 8G\	8r	.
8E\ 8G\	4r	.
8E\ 8G\J	.	.
=48	=48	=48
8E\ 8G\ 8B\L	8g/ 8cc/	.
8E\ 8G\ 8B\	8r	.
8F#\ 8A\	8d#/ 8dd#/	.
8F#\ 8A\	8r	.
8F#\ 8A\	4r	.
8F#\ 8A\J	.	.
=49	=49	=49
8F#\ 8A\ 8cn\L	8a\ 8dd#\	.
8F#\ 8A\ 8c\	8r	.
8G\ 8B\	8e\ 8ee\	.
8G\ 8B\	8r	.
8G\ 8B\	4r	.
8G\ 8B\J	.	.
=50	=50	=50
8G#\ 8B\ 8d\L	8b\ 8ee\	.
8G#\ 8B\ 8d\	8r	.
8G#\ 8B\ 8c#\	8e#\ 8ee#\	.
8G#\ 8B\ 8c#\	8r	.
8G#\ 8B\ 8c#\	4r	.
8G#\ 8B\ 8c#\J	.	.
=51	=51	=51
8c#\L	8g#\ 8b\ (8een\L	pp
8c#\	8g#\ 8b\ 8ee#\)	.
8c#\	8g#'\ 8b'\ 8ee#'\	.
8c#\	8g#'\ 8b'\ 8ee#'\	.
8c#\	8g#'\ 8b'\ 8ee#'\	.
8c#\J	8g#'\ 8b'\ 8ee#'\J	.
=52	=52	=52
8c#\L	8g#\ 8b\ 8ee#\L	<
8c#\	8g#\ 8b\ 8ee#\	.
8c#\	8g#\ 8b\ 8ee#\	.
8c#\	8g#\ 8b\ 8ee#\	.
8c#\	8g#\ 8b\ 8ee#\	.
8c#\J	8g#\ 8b\ 8ee#\J	.
=53	=53	=53
*	*8va	*
8F#\ 8A#\ 8c#\ 8e\L	8ff#\ 8aa#\ 8ccc#\ 8eeen\ (8fff#\L	ff
8F#\ 8A#\ 8c#\ 8e\	8gg\ 8aa#\ 8ccc#\ 8eee\ 8ggg\)	.
8F#\ 8A#\ 8c#\ 8e\	8gg'\ 8aa#'\ 8ccc#'\ 8eee'\ 8ggg'\	.
8F#\ 8A#\ 8c#\ 8e\	8gg'\ 8aa#'\ 8ccc#'\ 8eee'\ 8ggg'\	.
8F#\ 8A#\ 8c#\ 8e\	8gg\ 8aa#\ 8ccc#\ 8eee\ 8ggg\	.
8F#\ 8A#\ 8c#\ 8e\J	8gg\ 8aa#\ 8ccc#\ 8eee\ 8ggg\J	.
=54	=54	=54
8F#\ 8A#\ 8c#\ 8e\L	8gg\ 8aa#\ 8ccc#\ 8eee\ 8ggg\L	>
8F#\ 8A#\ 8c#\ 8e\	8gg\ 8aa#\ 8ccc#\ 8eee\ 8ggg\	.
8F#\ 8A#\ 8c#\ 8e\	8gg\ 8aa#\ 8ccc#\ 8eee\ 8ggg\	.
8F#\ 8A#\ 8c#\ 8e\	8gg\ 8aa#\ 8ccc#\ 8eee\ 8ggg\	.
8F#\ 8A#\ 8c#\ 8e\	8gg\ 8aa#\ 8ccc#\ 8eee\ 8ggg\	.
8F#\ 8A#\ 8c#\ 8e\J	8gg\ 8aa#\ 8ccc#\ 8eee\ 8ggg\J	.
=55	=55	=55
16BB\LL	4gg\ 4ggg\	p
16d\	.	.
16F#\	.	.
16d\JJ	.	.
16C#\LL	[2ff#\ [2fff#\	.
16e\	.	.
16F#\	.	.
16e\JJ	.	.
16D\LL	.	.
16f#\	.	.
16F#\	.	.
16f#\JJ	.	.
=56	=56	=56
16BB\LL	4ff#\] 4fff#\]	.
16d\	.	.
16F#\	.	.
16d\JJ	.	.
16C#\LL	[2b\ [2bb\	.
16e\	.	.
16F#\	.	.
16e\JJ	.	.
16D\LL	.	.
16f#\	.	.
16F#\	.	.
16f#\JJ	.	.
=57	=57	=57
16BB\LL	4b\] 4bb\]	.
16d\	.	.
16F#\	.	.
16d\JJ	.	.
16C#\LL	[2f#\ [2ff#\	.
16e\	.	.
16F#\	.	.
16e\JJ	.	.
16D\LL	.	.
16f#\	.	.
16F#\	.	.
16f#\JJ	.	.
=58	=58	=58
16BB\LL	4f#\] 4ff#\]	.
16d\	.	.
16F#\	.	.
16d\JJ	.	.
16C#\LL	2B/ [2b/	.
16e\	.	.
16F#\	.	.
16e\JJ	.	.
16D\LL	.	.
16f#\	.	.
16F#\	.	.
16f#\JJ	.	.
=59	=59	=59
16E\LL	(4b/]	.
16d\	.	.
16B\	.	.
16d\JJ	.	.
16E#\LL	4g/	.
16d\	.	.
16B\	.	.
16d\JJ	.	.
16F#\LL	4f#/)	.
16d\	.	.
16B\	.	.
16d\JJ	.	.
=60	=60	=60
16F#\LL	(2f#/	.
16d\	.	.
16B\	.	.
16d\JJ	.	.
16F#\LL	.	.
16d\	.	.
16B\	.	.
16d\JJ	.	.
16F#\LL	4a#/)	.
16e\	.	.
16c#\	.	.
16e\JJ	.	.
=61	=61	=61
16BB\LL	8r	.
16d\	.	.
16F#\	(8gg\	.
16d\JJ	.	.
16C#\LL	4.ggg^\	.
16e\	.	.
16F#\	.	.
16e\JJ	.	.
16D\LL	.	.
16f#\	.	.
16F#\	8fff#\)	.
16f#\JJ	.	.
=62	=62	=62
16BB\LL	8r	.
16d\	.	.
16F#\	(8fff#\	.
16d\JJ	.	.
16C#\LL	4.ccc#^\	.
16e\	.	.
16F#\	.	.
16e\JJ	.	.
16D\LL	.	.
16f#\	.	.
16F#\	8bb\)	.
16f#\JJ	.	.
=63	=63	=63
16BB\LL	8r	.
16d\	.	.
16F#\	(8bb\	.
16d\JJ	.	.
16C#\LL	4.gg^\	.
16e\	.	.
16F#\	.	.
16e\JJ	.	.
16D\LL	.	.
16f#\	.	.
16F#\	8ff#\)	.
16f#\JJ	.	.
=64	=64	=64
16BB\LL	8r	.
16d\	.	.
16F#\	(8ff#\	.
16d\JJ	.	.
16C#\LL	4.cc#^\	.
16e\	.	.
16F#\	.	.
16e\JJ	.	.
16D\LL	.	.
16f#\	.	.
16F#\	8b\)	.
16f#\JJ	.	.
=65	=65	=65
16E\LL	(4b/	.
16d\	.	.
16B\	.	.
16d\JJ	.	.
16E#\LL	4g/	.
16d\	.	.
16B\	.	.
16d\JJ	.	.
16F#\LL	4f#/)	.
16d\	.	.
16B\	.	.
16d\JJ	.	.
=66	=66	=66
2F#\	(8f#/L	.
.	8d/	.
.	8B/	.
.	8G/	.
4FFF#/ 4FF#/	8F#/	.
.	8A#/J)	.
=67	=67	=67
8BBB/ 8BB/L	4B/	f
8CC#'/ 8C#'/	.	.
8DD'/ 8D'/	4r	.
8EE'/ 8E'/J	.	.
[4FF#/ [4F#/	4r	.
=68	=68	=68
2.FF#/] 2.F#/]	2.G/ (2.B/	.
=69	=69	=69
*	*^	*
2.EE/ 2.E/	2cn/	2.G\	p
.	[4g/	.	.
=70	=70	=70	=70
2.FF#/ 2.F#/	2g/]	2.A#\ 2.c#\ 2.e\	.
.	4f#/)	.	.
*	*v	*v	*
=71	=71	=71
8BBB'/ 8BB'/L	4B/ 4d/ 4f#/	f
8CC#'/ 8C#'/	.	.
8DD'/ 8D'/	4r	.
8EE'/ 8E'/J	.	.
[4FF#/ [4F#/	4r	.
=72	=72	=72
2.FF#/] 2.F#/]	2.G/ (2.B/	.
=73	=73	=73
*	*^	*
2.EE/ 2.E/	2cn/	2.G\	p
.	[4g/	.	.
=74	=74	=74	=74
2.FF#/ 2.F#/	2g/]	2.A#\ 2.c#\ 2.e\	.
.	4f#/)	.	.
*	*v	*v	*
=75	=75	=75
2.r	4r	.
.	4r	.
.	([4g/	.
=76	=76	=76
*	*^	*
2.BBB/ 2.BB/	2g/]	2.B\ 2.d\	>
.	4f#/)	.	.
*	*v	*v	*
=77	=77	=77
2.r	4r	.
.	4r	.
.	([4g/	.
=78	=78	=78
*	*^	*
2.FFF#/ 2.FF#/	2g/]	2.c#\ 2.e\	.
.	4a#/)	.	.
*	*v	*v	*
=79	=79	=79
4BBB/ 4BB/	4B/ 4d/ 4b/	pp
4r	4r	.
4r	4r	.
=80	=80	=80
4BBB/ 4BB/	4B/ 4d/ 4b/	.
4r	4r	.
4r	4r	.
=81	=81	=81
4BBB/ 4BB/	4B/ 4d/ 4b/	.
4r	4r	.
4r	4r	.
=82	=82	=82
2.r	2.b\	pp
=83	=83	=83
2.r	2.b\	.
=84	=84	=84
*	*^	*
4r	4r	2b\	.
4r	4r	.	.
*clefG2	*	*	*
4f#'/ 4a'/	4aa/	8b\L	.
.	.	8b\J	.
=85	=85	=85	=85
4f#/ 4a/	(4.aa/	8b\L	.
.	.	8b\	.
4r	.	8b\	.
.	8gg/)	8b\	.
8f#/ 8a/	8ff#/	8b\	.
8r	8r	8b\J	.
=86	=86	=86	=86
4e/ 4g/	4gg/ 4bb/	8b\L	.
.	.	8b\	.
4r	4r	8b\	.
.	.	8b\	.
4e/ 4g/	4gg/ 4bb/	8b\	.
.	.	8b\J	.
=87	=87	=87	=87
4d/ 4fn/	4.gg#/ (4.bb/	8b\L	.
.	.	8b\	.
4r	.	8b\	.
.	8aa/)	8b\	.
8d/ 8f/	8gg#/ 8bb/	8b\	.
8r	8r	8b\J	.
=88	=88	=88	=88
8c/ 8e/	4aa/ 4ccc/	4cc\	.
8e/L	.	.	.
8e/	4r	4r	.
8e/	.	.	.
8e/	4r	4cc\ 4ccc\	<
8e/J	.	.	.
*	*v	*v	*
=89	=89	=89
*^	*	*
8e/L	4A\ 4c\	4.cc\ (4.ccc\	.
8e/	.	.	.
8e/	4r	.	.
8e/	.	8b\ 8bb\)	.
8e/	8A\ 8c\	8a\ 8aa\	.
8e/J	8r	8r	.
=90	=90	=90	=90
8fn/L	4A-\ 4B\	4dd\ 4ddd\	.
8f/	.	.	.
8f/	4r	4r	.
8f'/	.	.	.
8f/	4A-\ 4B\	4dd\ 4ddd\	.
8f/J	.	.	.
=91	=91	=91	=91
8fn/L	4A-\ 4B-\	4.dd\ (4.ddd\	.
8f/	.	.	.
8f/	4r	.	.
8f/	.	8cc\ 8ccc\)	.
8f/	4A-\ 4B-\	8dd\ 8ddd\	.
8f/J	.	8r	.
*v	*v	*	*
=92	=92	=92
8G/ 8B-/ 8e-/L	4.ee-\ (4.eee-\	f
8G/ 8B-/ 8e-/	.	.
8G/ 8B-/ 8e-/	.	.
8G/ 8B-/ 8e-/	8dd\ 8ddd\)	.
8G/ 8B-/ 8e-/	8ee-\ 8eee-\	.
8G/ 8B-/ 8e-/J	8r	.
=93	=93	=93
8G-/ 8B-/L	(4.e-/	.
8G-/ 8B-/	.	.
8G-/ 8B-/	.	.
8G-/ 8B-/	8d/)	.
8G-/ 8B-/	8e-/	.
8G-/ 8B-/J	8r	.
*clefF4	*	*
=94	=94	=94
8E-\ 8G-\L	(4.e-/ 4.g-/	.
8E-\ 8G-\	.	.
8E-\ 8G-\	.	.
8E-\ 8G-\	8d/) 8fn/	.
8E-\ 8G-\	8e-/ 8g-/	.
8E-\ 8G-\J	8r	.
=95	=95	=95
8C\ 8E-\L	4.ee-\ (4.gg-\	.
8C\ 8E-\	.	.
8C\ 8E-\	.	.
8C\ 8E-\	8dd\ 8ffn\)	.
8C\ 8E-\	8ee-\ 8gg-\	.
8C\ 8E-\J	8r	.
=96	=96	=96
8AA/ 8C/L	4.cc\ (4.ccc\	.
8AA/ 8C/	.	.
8AA/ 8C/	.	.
8AA/ 8C/	8b\ 8bb\)	.
8AA/ 8C/	8cc\ 8ccc\	.
8AA/ 8C/J	8r	.
=97	=97	=97
8FF#/ 8AA/ 8C/L	(4.A/	.
8FF#/ 8AA/ 8C/	.	.
8FF#/ 8AA/ 8C/	.	.
8FF#/ 8AA/ 8C/	8G#/)	.
8FF#/ 8AA/ 8C/	8A/	.
8FF#/ 8AA/ 8C/J	8r	.
=98	=98	=98
*	*8va	*
8EE-/ 8FF#/ 8AA/ 8C/L	4.ff#\ (4.fff#\	.
8EE-/ 8FF#/ 8AA/ 8C/	.	.
8EE-/ 8FF#/ 8AA/ 8C/	.	.
8EE-/ 8FF#/ 8AA/ 8C/	8ee#\ 8eee#\)	.
8EE-/ 8FF#/ 8AA/ 8C/	8ff#\ 8fff#\	.
*	*X8va	*
8EE-/ 8FF#/ 8AA/ 8C/J	8r	.
=99	=99	=99
8DDn/ 8FF#/ 8AA/ 8C/L	[4.f#/ [4.a/ 4.cc/	.
8DD/ 8FF#/ 8AA/ 8C/	.	.
8DD/ 8FF#/ 8AA/ 8C/	.	.
8DD/ 8FF#/ 8AA/ 8C/	8f#/] 8a/] 8b/	.
8DD/ 8FF#/ 8AA/ 8C/	8f#/ 8a/ 8cc/	.
8DD/ 8FF#/ 8AA/ 8C/J	8r	.
=100	=100	=100
8GGG/ 8GG/L	4b/	.
8GGG/ 8GG/	.	.
8GGG/ 8GG/J	8r	.
8r	8a'\ 8b'\ 8ffn'\	p
4r	4g'\ 4cc'\ 4een'\	.
=101	=101	=101
8r	4f#'\ 4an'\ 4ee-'\	.
8GGG/ 8GG/L	.	.
8GGG/ 8GG/J	8r	.
8r	8f#'\ 8a'\ 8ee-'\	.
4r	4fn'\ 4b'\ 4dd'\	.
=102	=102	=102
8r	4e'/ 4g'/ 4cc#'/	.
8GGG/ 8GG/L	.	.
8GGG/ 8GG/J	8r	.
8r	8e-'/ 8g'/ 8ccn'/	.
4r	4d'/ 4g'/ 4b'/	.
=103	=103	=103
8r	8c#/ 8e/ 8b-/	.
8GGG/ 8GG/	8r	.
8r	8cn/ 8e-/ 8a/	.
8GGG/ 8GG/	8r	.
8r	8c/ 8e-/ 8a-/	.
8GGG/ 8GG/	8r	.
=104	=104	=104
8r	8g/	<
8GGG/ 8GG/	8r	.
8r	8f#/	.
8AAA/ 8AA/	8r	.
8r	8fn/	.
8BBB/ 8BB/	8r	.
=105	=105	=105
8r	8e/	.
8CC/ 8C/	8r	.
8r	8e-/	.
8CC#/ 8C#/	8r	.
8r	8d/	.
8DD/ 8D/	8r	.
=106	=106	=106
8r	8c#/	.
8EE-/ 8E-/	8r	.
8r	8cn/	.
8EEn/ 8En/	8r	.
8r	8B/	.
8FFn/ 8Fn/	8r	.
=107	=107	=107
8r	8B-/	>
8FF#/ 8F#/	8r	.
8r	8A/	.
8GG/ 8G/	8r	.
8r	8A-/	.
8GG/ 8G/	8r	pp
=108	=108	=108
2.r	(8A-/L	.
.	8G/J	.
.	[2g/)	.
=109	=109	=109
(2fn\	2g/]	.
4B\ 4f\	[4g/	.
=110	=110	=110
4c\ 4e\	4g/]	.
4c\	4cc/	.
4c#\	4a/	.
=111	=111	=111
4d\	4g/	.
4A\	4fn/	.
4B-\	[4f/	.
=112	=112	=112
4Bn\	4f/]	.
4G\	4dd\	.
4d\	[4fn/	.
=113	=113	=113
4d-\	4f/]	.
4c\)	4e/	.
4B-\ ([4c\	16e\LL	.
.	16g\	.
.	16cc\	.
.	16ee\JJ	.
=114	=114	=114
4A\ 4c\]	16ffn\LL	.
.	16cc\	.
.	16a\	.
.	16fn\JJ	.
4Fn\ 4fn\	16a\LL	.
.	16cc\	.
.	16ff\	.
.	16aa\JJ	.
4F#\ 4d\	16aa\LL	.
.	16dd\	.
.	16aa\	.
.	16ddd\JJ	.
=115	=115	=115
4G\ 4c\	16aa\LL	.
.	16dd\	.
.	16aa\	.
.	16bb-\JJ	.
4D\ 4B-\)	16gg\LL	.
.	16dd\	.
.	16gg\	.
.	16bb-\JJ	.
4Fn\ ([4B-\	16gg\LL	.
.	16dd-\	.
.	16gg\	.
.	16bb-\JJ	.
=116	=116	=116
4E\ 4B-\]	16gg\LL	.
.	16cc\	.
.	16gg\	.
.	16bb-\JJ	.
4g\	16ee\LL	.
.	16cc\	.
.	16ee\	.
.	16gg\JJ	.
4C\ [4B-\	16gg\LL	.
.	16ee\	.
.	16gg\	.
.	16ccc\JJ	.
=117	=117	=117
4Fn\ 4B-\]	16gg\LL	.
.	16ee\	.
.	16gg\	.
.	16ccc\JJ	.
4F\ 4A\)	16aa\LL	.
.	16ffn\	.
.	16aa\	.
.	16ccc\JJ	.
[4AA/	16aa\LL	.
.	16ff\	.
.	16aa\	.
.	16ccc\JJ	.
=118	=118	=118
*k[]	*k[]	*k[]
4AA/]	16aa\LL	.
.	16ff\	.
.	16aa\	.
.	16ddd\JJ	.
(4D/	16aa\LL	.
.	16ff\	.
.	16aa\	.
.	16ddd\JJ	.
4BB-/	16bb-\LL	.
.	16ff\	.
.	16bb-\	.
.	16ddd\JJ	.
=119	=119	=119
4AA/	16bbn\LL	.
.	16ff\	.
.	16bb\	.
.	16ddd\JJ	.
4GG#/)	24bb\LL	.
.	24ee\	.
.	24bb\JK	.
.	8ddd\J	.
4GG#/	16bb\LL	.
.	16ee\	.
.	16bb\	.
.	16ddd\JJ	.
=120	=120	=120
*^	*	*
4r	4GG#/	16bb\LL	.
.	.	16ee\	.
.	.	16bb\	.
.	.	16ddd\JJ	.
2E/	4E\	16bb\LL	.
.	.	16ee\	.
.	.	16bb\	.
.	.	16ddd\JJ	.
.	4GG#\	16bb\LL	.
.	.	16ee\	.
.	.	16bb\	.
.	.	16ddd\JJ	.
=121	=121	=121	=121
4r	4AA/	16bb\LL	.
.	.	16ee\	.
.	.	16bb\	.
.	.	16ccc\JJ	.
2E/	4E\	16aa\LL	.
.	.	16ee\	.
.	.	16aa\	.
.	.	16ccc\JJ	.
.	4AA\	16aa\LL	.
.	.	16ee\	.
.	.	16aa\	.
.	.	16ccc\JJ	.
=122	=122	=122	=122
4r	4BB/	16aa\LL	.
.	.	16dd\	.
.	.	16aa\	.
.	.	16bb\JJ	.
2E/	4E\	16gg#\LL	.
.	.	16dd\	.
.	.	16gg#\	.
.	.	16bb\JJ	.
.	4BB\	16gg#\LL	.
.	.	16dd\	.
.	.	16gg#\	.
.	.	16bb\JJ	.
=123	=123	=123	=123
4r	4C/	16gg#\LL	.
.	.	16cc\	.
.	.	16gg#\	.
.	.	16bb\JJ	.
2E/	4E\	16gg#\LL	.
.	.	16aa\	.
.	.	16cc\	.
.	.	16aa\JJ	.
.	4C\	16gg#\LL	.
.	.	16aa\	.
.	.	16cc\	.
.	.	16aa\JJ	.
=124	=124	=124	=124
4r	4D#\	16aa\LL	.
.	.	16b\	.
.	.	16aa\	.
.	.	16bb\JJ	.
2B/	4B\	16aa\LL	.
.	.	16b\	.
.	.	16aa\	.
.	.	16bb\JJ	.
.	4D#\	16aa\LL	.
.	.	16b\	.
.	.	16aa\	.
.	.	16bb\JJ	.
=125	=125	=125	=125
4r	4E\	16aa\LL	.
.	.	16b\	.
.	.	16aa\	.
.	.	16bb\JJ	.
2c/	4c\	16aa\LL	.
.	.	16b\	.
.	.	16aa\	.
.	.	16bb\JJ	.
.	4E\	16aa\LL	.
.	.	16b\	.
.	.	16aa\	.
.	.	16bb\JJ	.
=126	=126	=126	=126
4r	4F#\	16aa\LL	.
.	.	16b\	.
.	.	16aa\	.
.	.	16bb\JJ	.
2d#/	4d#\	16aa\LL	.
.	.	16b\	.
.	.	16aa\	.
.	.	16bb\JJ	.
.	4F#\	16aa\LL	.
.	.	16b\	.
.	.	16aa\	.
.	.	16bb\JJ	.
=127	=127	=127	=127
4r	4G\	16gg\LL	.
.	.	16b\	.
.	.	16gg\	.
.	.	16bb\JJ	.
2e/	4e\	16gg\LL	.
.	.	16b\	.
.	.	16gg\	.
.	.	16bb\JJ	.
.	4G\	16bb\LL	.
.	.	16ee\	.
.	.	16bb\	.
.	.	16eee\JJ	.
*v	*v	*	*
*clefG2	*	*
=128	=128	=128
*	*8va	*
*^	*	*
4r	4A/	16ccc\LL	.
.	.	16ee\	.
.	.	16ccc\	.
.	.	16eee\JJ	.
2f#/	4f#\	16ccc\LL	.
.	.	16ee\	.
.	.	16ccc\	.
.	.	16eee\JJ	.
.	4A\	16ccc\LL	.
.	.	16ee\	.
.	.	16ccc\	.
.	.	16eee\JJ	.
=129	=129	=129	=129
4r	4A#/	16ccc#\LL	.
.	.	16gg\	.
.	.	16ccc#\	.
.	.	16eee\JJ	.
2g/	4g\	16ccc#\LL	.
.	.	16gg\	.
.	.	16ccc#\	.
.	.	16eee\JJ	.
.	4A#\	16ccc#\LL	.
.	.	16gg\	.
.	.	16ccc#\	.
.	.	16eee\JJ	.
=130	=130	=130	=130
4B/	2B\	16bb\LL	f
.	.	16gg\	.
.	.	16bb\	.
.	.	16eee\JJ	.
4e/	.	16ggg\LL	.
.	.	16fff#\	.
.	.	16eee\	.
.	.	16ddd#\JJ	.
4g/	4r	16eee\LL	.
.	.	16ddd#\	.
.	.	16eee\	.
.	.	16fff#\JJ	.
*v	*v	*	*
=131	=131	=131
*k[f#]	*k[f#]	*k[f#]
4b\	16ggg\LL	.
.	16fff#\	.
.	16eee\	.
.	16ddd#\JJ	.
4ee\	16ggg\LL	.
.	16fff#\	.
.	16eee\	.
.	16ddd#\JJ	.
4gg\	16ggg\LL	.
.	16fff#\	.
.	16eee\	.
.	16ddd#\JJ	.
=132	=132	=132
4r	16ggg\LL	ff
.	16fff#\	.
.	16eee\	.
.	16ddd#\JJ	.
16gg\LL	8eee\	.
16ff#\	.	.
16ee\	8r	.
16dd#\JJ	.	.
8ee\	4r	.
8r	.	.
=133	=133	=133
4r	(8ggg\L	p
.	8fff#\	.
(8gg\L	8eee\	.
8ff#\	8ddd#\J	.
8ee\	4eee\)	.
8dd#\J	.	.
=134	=134	=134
4ee\)	4ggg\	.
4r	4fff#\	.
(4gg\	4eee\	.
=135	=135	=135
4ff#\	4ddd#\	.
4ee\	4eee\	.
4dd#\	4r	.
=136	=136	=136
4ee\)	2ggg\	.
4r	.	.
4r	[4fff#\	.
=137	=137	=137
(2gg\	4fff#\]	.
.	4eee\	.
*	*X8va	*
[4ff#\	4r	.
=138	=138	=138
4ff#\]	2g/	<
4ee\)	.	.
4r	8f#/L	>
.	8e/J	.
=139	=139	=139
(2g/	4e/	.
.	4r	.
8f#/L	4r	.
8e/J	.	.
=140	=140	=140
4e/)	4r	.
4r	4g/	pp
(4g/	8f#/L	.
.	8e/J	.
=141	=141	=141
8f#/L	8e/	<
8e/J	8r	.
8e/)	8r	.
8r	8g/L	.
8r	8f#/	.
(8gg\	8e/J	.
=142	=142	=142
8ff#\L	8r	.
*	*8va	*
8ee\J)	8ggg\L	.
8r	8fff#\	.
(8gg\L	8eee\J	.
*	*X8va	*
8ff#\	8r	.
8ee\J)	8g/	.
=143	=143	=143
8r	8f#/L	.
*clefF4	*	*
(8G\L	8e/J	.
8F#\	4r	.
8E\J)	.	.
8E\	8g/	f
8r	8r	.
=144	=144	=144
*	*^	*
2EE/ 2E/	(4.g/	2G\ 2B\ 2e\	.
.	8f#/	.	.
8EE/ 8E/	8G/ 8e/)	4r	.
8r	8r	.	.
*	*v	*v	*
=145	=145	=145
8DD/ 8D/	8A/ 8f#/ 8a/	.
8r	8r	.
4r	4r	.
4d\	4f#/ 4a/	p
=146	=146	=146
4.c\ 4.d\	(4.f#/ 4.a/	.
8B\ 8d\	8g/)	.
4A'\ 4c'\	(4f#'/ 4a'/	.
=147	=147	=147
4G'\ 4B'\	4g'/) 4b'/	.
4r	4r	.
8GG\ 8G\	8B/ 8d/ 8g/ 8b/	f
8r	8r	.
=148	=148	=148
*	*^	*
2GG\ 2G\	(4.b/	2B\ 2d\ 2g\	.
.	8a/	.	.
8GGG/ 8GG/	8B/ 8g/)	4r	.
8r	8r	.	.
*	*v	*v	*
=149	=149	=149
8FFF#/ 8FF#/	8c#/ 8a#/ 8cc#/	.
8r	8r	.
4r	4r	.
*clefG2	*	*
4f#/	4a#\ 4cc#\	p
=150	=150	=150
4.e/ 4.f#/	4.a#\ (4.cc#\	.
8d/ 8f#/	8b\)	.
4c#'/ 4e'/	4a#'\ (4cc#'\	.
=151	=151	=151
4B'/ 4d'/	4b'\ 4dd'\)	.
4r	4r	.
4r	[4dd\	.
=152	=152	=152
*^	*	*
*	*^	*	*
[2.g/	2d/	2.B\	4dd\]	.
.	.	.	(4gg\	.
*	*v	*v	*	*
.	[4e/	4ee\	.
=153	=153	=153	=153
2g/]	2A\ 2e\]	4dd\	.
.	.	4ccn\)	.
4f#/	(4e-\	[4cc\	.
=154	=154	=154	=154
2f#/	2d\)	4cc\]	.
.	.	4aa\	.
(4f#/	4r	[4cc\	.
*v	*v	*	*
=155	=155	=155
2g/	4cc\]	.
.	4b\	.
*clefF4	*	*
4G\	[4b\	.
=156	=156	=156
2E\	4b\]	>
.	4g/	.
4e\	[4g/	.
=157	=157	=157
2c\	4g/]	.
.	4e/	.
[4C/)	[4e/	.
=158	=158	=158
2.CC/ 2.C/]	4e/]	pp
*	*clefF4	*clefF4
.	(4G\	.
.	4E\)	.
=159	=159	=159
2BBB;/ 2BB;/	2D#;\ 2B;\	.
*	*clefG2	*clefG2
4r	[4ee\ [4eee\	.
=160	=160	=160
*^	*	*
*	*^	*	*
2.B/	[2.E/	2.GG\	4.ee\] (4.eee\]	<
.	.	.	8dd#\ 8ddd#\	.
.	.	.	4ee\ 4eee\)	.
*v	*v	*v	*	*
=161	=161	=161
*^	*	*
2.E/]	2AA\	2c/ 2e/ 2f#/	.
.	4AA#\	4c#/ 4e/ 4f#/	.
*v	*v	*	*
=162	=162	=162
*	*^	*
2.BB/	(4.f#/	2.A\ 2.d#\	>
.	8g/L	.	.
.	8a/	.	.
.	8g/J)	.	.
*	*v	*v	*
=163	=163	=163
2C\ (2G\	4f#/	.
.	4e/	.
8BB/L	[4ee\ [4eee\	<
8AA/J)	.	.
=164	=164	=164
*^	*	*
2.B/	2GG\	4.ee\] (4.eee\]	.
.	.	8dd#\ 8ddd#\	.
.	4GG#\	4ee\ 4eee\)	.
*v	*v	*	*
=165	=165	=165
2AA/	2c/ 2e/ 2f#/	.
4AA#/	4c#/ 4e/ 4f#/	.
=166	=166	=166
*	*^	*
2.BBB/ 2.BB/	(4.f#/	2.A\ 2.d#\	.
.	8a/L	.	.
.	8g/	.	.
.	8f#/J	.	.
*	*v	*v	*
=167	=167	=167
4EE/ 4E/	4G/ 4e/)	.
4r	4r	.
4GGG/ 4GG/	4G/ 4g/	pp
=168	=168	=168
2GGG/ 2GG/	2G/ 2g/	.
4CC/ 4C/	4c/ 4cc/	.
=169	=169	=169
2CC/ 2C/	2c/ 2cc/	.
4GG\ 4G\	4g\ 4gg\	.
=170	=170	=170
2GG\ 2G\	2g\ 2gg\	.
4C\ 4c\	4cc\ 4ccc\	.
=171	=171	=171
2C\ 2c\	2cc\ 2ccc\	.
*	*8va	*
8B\ 8d\ 8fn\ 8g\	8ffn\ 8ddd\ 8fffn\	f
8r	8r	.
=172	=172	=172
4.B\ 4.d\ 4.fn\ 4.g\	4.ffn\ 4.ddd\ 4.fffn\	.
8r	16eee\LL	.
.	16ddd\JJ	.
4r	16ccc\LL	.
.	16bb\	.
.	16aa\	.
.	16gg\JJ	.
*	*X8va	*
=173	=173	=173
4r	16ffn\LL	.
.	16ee\	.
.	16dd\	.
.	16cc\JJ	.
4r	(24b/LL	.
.	24a/	.
.	24g/	.
.	24fn/	.
.	24e/	.
.	24d/JJ)	.
(20c/LL	4r	.
20B/	.	.
20A/	.	.
20G/	.	.
20F#/JJ)	.	.
=174	=174	=174
4r	8G/	.
.	8r	.
4r	4r	.
8BBB/ 8BB/	8G/ 8d/ 8fn/	.
8r	8r	.
=175	=175	=175
8CC/ 8C/	8G/ 8c/ 8e/	.
8r	8r	.
4r	4r	.
8E\ 8G#\ 8B\ 8d\	8dd\ 8gg#\ 8bb\ 8ddd\	.
8r	8r	.
=176	=176	=176
4.E\ 4.G#\ 4.B\ 4.d\	4.dd\ 4.gg#\ 4.bb\ 4.ddd\	.
8r	16ccc\LL	.
.	16bb\JJ	.
4r	16aa\LL	.
.	16gg#\	.
.	16ff#\	.
.	16ee\JJ	.
=177	=177	=177
2.r	16dd\LL	.
.	16cc\	.
.	16b\	.
.	(16a\JJ	.
.	24g#/LL	.
.	24f#/	.
.	24e/	.
.	24d/	.
.	24c/	.
.	24B/JJ)	.
*	*clefF4	*clefF4
.	(20A\LL	.
.	20G#\	.
.	20F#\	.
.	20E\	.
.	20D#\JJ)	.
=178	=178	=178
4r	4E\	.
4r	4r	.
8GGG#/ 8GG#/	8E\ 8B\ 8d\	.
8r	8r	.
=179	=179	=179
8AAA/ 8AA/	8E\ 8A\ 8c\	.
8r	8r	.
4r	4r	.
*	*clefG2	*clefG2
4FFn\ 4C\ 4A\	4ccc\	p
=180	=180	=180
[2.FFn\ [2.C\ [2.A\	4.ccc\	.
.	16bb-\LL	.
.	16aa\JJ	.
.	16gg\LL	.
.	16ffn\	.
.	16ee\	.
.	16dd\JJ	.
=181	=181	=181
2FFn\] 2C\] 2A\]	16cc/LL	.
.	16b-/	.
.	16a/	.
.	16g/JJ	.
.	(20fn/LL	.
.	20e/	.
.	20d/	.
.	20c/	.
.	20B-/JJ)	.
4FF/ 4C/	4A/	.
=182	=182	=182
2FFn/ 2C/	2A/	.
4FF/ 4C/	4A/ 4d#/	.
=183	=183	=183
2FFn/ 2C/	2A/ 2d#/	.
4FF#\ 4C\ 4A\	4d#/ 4a/	.
=184	=184	=184
2FF#\ 2C\ 2A\	2d#/ 2a/	.
4FF#\ 4C\ 4A\	4d#/ 4a/ 4dd#/	.
=185	=185	=185
2FF#\ 2C\ 2A\	2d#/ 2a/ 2dd#/	.
4FF#\ 4C\ 4A\	4cc\ 4dd#\ 4aa\ 4ccc\	.
=186	=186	=186
[2.FF#\ [2.BB\ [2.A\	2cc\ 2dd#\ 2aa\ (2ccc\	<
.	4b\ 4dd#\ 4aa\ 4bb\	.
=187	=187	=187
2FF#\] 2BB\] 2A\]	2a#\ 2dd#\ 2aa#\	.
4FF#\ 4BB\ 4A\	4b\ 4dd#\ 4aan\ 4bb\)	.
=188	=188	=188
8GG\ 8BB\ 8G\L	2.b\ 2.ee\ 2.bb\	f
8G\ 8B\	.	.
8G\ 8B\	.	.
8G\ 8B\	.	.
8G\ 8B\	.	.
8G\ 8B\J	.	.
=189	=189	=189
8G#\ 8B\L	2.ee\ 2.eee\	.
8G#\ 8B\	.	.
8G#\ 8B\	.	.
8G#\ 8B\	.	.
8G#\ 8B\	.	.
8G#\ 8B\J	.	.
=190	=190	=190
8G#\ 8B\ 8d\L	8b\ 8dd\ 8ee\	.
8G#\ 8B\ 8d\	8r	.
8A\ 8c\	8fn\ 8cc\ 8ffn\	.
8A\ 8c\	8r	.
8A\ 8c\	4r	.
8A\ 8c\J	.	.
=191	=191	=191
8A\ 8c\ 8e\L	8cc\ 8ee\ 8ffn\	.
8A\ 8c\ 8e\	8r	.
8B\ 8d\	8g#\ 8dd\ 8gg#\	.
8B\ 8d\	8r	.
8B\ 8d\	4r	.
8B\ 8d\J	.	.
=192	=192	=192
8B\ 8d\ 8e\L	8g#\ 8dd\ 8ee\ 8gg#\	.
8B\ 8d\ 8e\	8r	.
8c\ 8e\	8a\ 8ee\ 8aa\	.
8c\ 8e\	8r	.
8c\ 8e\	4r	.
8c\ 8e\J	.	.
=193	=193	=193
8c\ 8e\L	8ee\ 8aa\	.
8c#\ 8e\	8r	.
8c#\ 8e\	8a#\ 8ee\ 8gg\ 8aa#\	.
8c#\ 8e\	8r	.
8c#\ 8e\	4r	.
8c#\ 8e\J	.	.
*clefG2	*	*
=194	=194	=194
8f#/L	8cc#\ 8ee\ (8aan\L	pp
8f#/	8cc#\ 8ee\ 8aa#\)	.
8f#/	8cc#'\ 8ee'\ 8aa#'\	.
8f#/	8cc#'\ 8ee'\ 8aa#'\	.
8f#/	8cc#'\ 8ee'\ 8aa#'\	.
8f#/J	8cc#'\ 8ee'\ 8aa#'\J	<
=195	=195	=195
8f#/L	8cc#\ 8ee\ 8aa#\L	.
8f#/	8cc#\ 8ee\ 8aa#\	.
8f#/	8cc#\ 8ee\ 8aa#\	.
8f#/	8cc#\ 8ee\ 8aa#\	.
8f#/	8cc#\ 8ee\ 8aa#\	.
8f#/J	8cc#\ 8ee\ 8aa#\J	.
=196	=196	=196
*	*8va	*
8B/ 8d#/ 8f#/ 8a/L	8bb\ (8bbb\L	.
8B/ 8d#/ 8f#/ 8a/	8ccc\ 8cccc\)	.
8B/ 8d#/ 8f#/ 8a/	8ccc'\ 8cccc'\	.
8B/ 8d#/ 8f#/ 8a/	8ccc'\ 8cccc'\	.
8B/ 8d#/ 8f#/ 8a/	8ccc'\ 8cccc'\	.
8B/ 8d#/ 8f#/ 8a/J	8ccc'\ 8cccc'\J	.
=197	=197	=197
8B/ 8d#/ 8f#/ 8a/L	8ccc\ 8cccc\L	>
8B/ 8d#/ 8f#/ 8a/	8ccc\ 8cccc\	.
8B/ 8d#/ 8f#/ 8a/	8ccc\ 8cccc\	.
8B/ 8d#/ 8f#/ 8a/	8ccc\ 8cccc\	.
8B/ 8d#/ 8f#/ 8a/	8ccc\ 8cccc\	.
8B/ 8d#/ 8f#/ 8a/J	8ccc\ 8cccc\J	.
*	*X8va	*
*clefF4	*	*
=198	=198	=198
16E\LL	4ccc/ 4cccc/	p
16g\	.	.
16B\	.	.
16g\JJ	.	.
16F#\LL	[2bb/ [2bbb/	.
16a\	.	.
16B\	.	.
16a\JJ	.	.
16G\LL	.	.
16b\	.	.
16B\	.	.
16b\JJ	.	.
=199	=199	=199
16E\LL	4bb/] 4bbb/]	.
16g\	.	.
16B\	.	.
16g\JJ	.	.
16F#\LL	[2ee/ [2eee/	.
16a\	.	.
16B\	.	.
16a\JJ	.	.
16G\LL	.	.
16b\	.	.
16B\	.	.
16b\JJ	.	.
=200	=200	=200
16E\LL	4ee/] 4eee/]	.
16g\	.	.
16B\	.	.
16g\JJ	.	.
16F#\LL	[2b/ [2bb/	.
16a\	.	.
16B\	.	.
16a\JJ	.	.
16G\LL	.	.
16b\	.	.
16B\	.	.
16b\JJ	.	.
=201	=201	=201
16E\LL	4b/] 4bb/]	.
16g\	.	.
16B\	.	.
16g\JJ	.	.
16F#\LL	[2ee/	.
16a\	.	.
16B\	.	.
16a\JJ	.	.
16G\LL	.	.
16b\	.	.
16B\	.	.
16b\JJ	.	.
=202	=202	=202
*	*^	*
2.r	(4ee/]	16A\LL	.
.	.	16g\	.
.	.	16e\	.
.	.	16g\JJ	.
.	4cc/	16A#\LL	.
.	.	16g\	.
.	.	16e\	.
.	.	16g\JJ	.
.	4b/)	16B\LL	.
.	.	16g\	.
.	.	16e\	.
.	.	16g\JJ	.
=203	=203	=203	=203
2.r	2b/	16B\LL	.
.	.	16g\	.
.	.	16e\	.
.	.	16g\JJ	.
.	.	16B\LL	.
.	.	16g\	.
.	.	16e\	.
.	.	16g\JJ	.
.	4dd#/	16B\LL	.
.	.	16a\	.
.	.	16f#\	.
.	.	16a\JJ	.
*	*v	*v	*
=204	=204	=204
16EE\LL	8ee\L	.
16G\	.	.
16BB\	(8cc\J	.
16G\JJ	.	.
16FF#\LL	4.ccc^\	.
16A\	.	.
16BB\	.	.
16A\JJ	.	.
16GG\LL	.	.
16B\	.	.
16BB\	8bb\)	.
16B\JJ	.	.
=205	=205	=205
16EE\LL	8r	.
16G\	.	.
16BB\	(8bb\	.
16G\JJ	.	.
16FF#\LL	4.ff#^\	.
16A\	.	.
16BB\	.	.
16A\JJ	.	.
16GG\LL	.	.
16B\	.	.
16BB\	8ee\)	.
16B\JJ	.	.
=206	=206	=206
16EE\LL	8r	.
16G\	.	.
16BB\	(8ee\	.
16G\JJ	.	.
16FF#\LL	4.cc^\	.
16A\	.	.
16BB\	.	.
16A\JJ	.	.
16GG\LL	.	.
16B\	.	.
16BB\	8b\)	.
16B\JJ	.	.
=207	=207	=207
16EE\LL	8r	.
16G\	.	.
16BB\	(8b/	.
16G\JJ	.	.
16FF#\LL	4.f#^/	.
16A\	.	.
16BB\	.	.
16A\JJ	.	.
16GG\LL	.	.
16B\	.	.
16E\	8e/)	.
16B\JJ	.	.
=208	=208	=208
16AA\LL	(4e/	.
16G\	.	.
16E\	.	.
16G\JJ	.	.
16AA#\LL	4c/	.
16G\	.	.
16E\	.	.
16G\JJ	.	.
16BB\LL	4B/)	.
16G\	.	.
16E\	.	.
16G\JJ	.	.
*	*clefF4	*clefF4
=209	=209	=209
2BB/	(8B\L	>
.	8G\	.
.	8E\	.
.	8C\	.
4BBB/	8BB\	.
.	8D#\J)	.
=210	=210	=210
8EE'\L	4E\	f
8FF#'\ 8F#'\	.	.
8GG'\ 8G'\	4r	.
8AA'\ 8A'\J	.	.
[4BB\ [4B\	4r	.
*	*clefG2	*clefG2
=211	=211	=211
2.BB\] 2.B\]	2.c/ (2.e/	.
=212	=212	=212
*	*^	*
2.AA\ 2.A\	2fn/	2.c\	p
.	[4cc/	.	.
=213	=213	=213	=213
2.BB\ 2.B\	2cc/]	2.d#\ 2.f#\ 2.a\	.
.	4b/)	.	.
*	*v	*v	*
=214	=214	=214
8EEE'/ 8EE'/L	4e/ 4g/ 4b/	f
8FFF#'/ 8FF#'/	.	.
8GGG'/ 8GG'/	4r	.
8AAA'/ 8AA'/J	.	.
[4BBB/ [4BB/	4r	.
*	*clefF4	*clefF4
=215	=215	=215
2.BBB/] 2.BB/]	2.C\ (2.E\	.
=216	=216	=216
*	*^	*
2.AAA/ 2.AA/	2Fn/	2.C\	p
.	[4c/	.	.
=217	=217	=217	=217
2.BBB/ 2.BB/	2c/]	2.D#\ 2.F#\ 2.A\	.
.	4B/)	.	.
*	*v	*v	*
=218	=218	=218
2.r	4r	.
.	4r	.
.	([4c\	>
=219	=219	=219
*	*^	*
2.EE/ 2.BB/	2c/]	2.E\ 2.G\	.
.	4B/)	.	.
*	*v	*v	*
=220	=220	=220
2.r	4r	.
.	4r	.
.	([4c\	.
=221	=221	=221
*	*^	*
2.BBB/ 2.BB/	2c/]	2.F#\ 2.A\	.
.	4d#/	.	.
*	*v	*v	*
=222	=222	=222
4EE/	4G\ 4e\)	.
*	*clefG2	*clefG2
4r	4r	.
4r	([4cc\	.
=223	=223	=223
*	*^	*
2.BB\ 2.B\	2cc/]	2.d#\ 2.f#\ 2.a\	.
.	4b/)	.	.
*	*v	*v	*
=224	=224	=224
2.r	4r	.
.	4r	.
.	([4cc\	.
=225	=225	=225
*	*^	*
2.E\ 2.B\	2cc/]	2.e\ 2.g\	.
.	4b/)	.	.
*	*v	*v	*
=226	=226	=226
2.r	4r	.
.	4r	.
.	([4cc\	.
=227	=227	=227
*	*^	*
2.BB\ 2.B\	2cc/]	2.f#\ 2.a\	.
.	4dd#/	.	.
=228	=228	=228	=228
4E\	4ee/)	4g\	.
4r	4r	4r	.
4r	([4ccc/	4r	.
*clefG2	*	*	*
=229	=229	=229	=229
2.b\	2ccc/]	2.dd#\ 2.ff#\ 2.aa\	.
.	4bb/)	.	.
*	*v	*v	*
=230	=230	=230
4r	2.r	.
4r	.	.
[4cc\	.	.
=231	=231	=231
4cc\]	4r	.
4b\	4r	.
4f#/ 4a/	4dd#\ 4ff#\	pp
=232	=232	=232
(4.e/ 4.g/	4.ee\ (4.gg\	.
8f#/ 8a/	8dd#\ 8ff#\	.
4g/)	4ee\)	.
=233	=233	=233
4dn/ 4f#/ 4a/	4ff#\ 4aa\	.
4r	4r	.
4dd\	4ff#\ 4aa\	.
=234	=234	=234
4.cc\ (4.dd\	4.ff#\ (4.aa\	.
8b\ 8dd\	8gg\	.
4a\ 4cc\)	4ff#\ 4aa\)	.
=235	=235	=235
4g\ 4b\	4gg\ 4bb\	.
4r	4r	.
4gg\	4bb\	.
=236	=236	=236
(4.gg\	(4.bb\	.
8ff#\	8aa\	.
4ee\)	4gg\ 4bb\)	.
=237	=237	=237
4dd#\	4aa\ 4ccc\	.
4r;	4r;	.
4r	[4ee\ [4eee\	.
*clefF4	*	*
=238	=238	=238
2.GG\ 2.E\ 2.B\	4.ee\] (4.eee\]	.
.	8dd#\ 8ddd#\	.
.	4ee\ 4eee\)	<
=239	=239	=239
2AA/	2c/ 2e/ 2f#/	.
4AA#/	4c#/ 4e/ 4f#/	.
=240	=240	=240
*	*^	*
2.BB/	(4.f#/	2.A\ 2.d#\	.
.	8g/L	.	>
.	8a/	.	.
.	8g/J	.	.
*	*v	*v	*
=241	=241	=241
2C\ 2G\	4f#/	.
.	4e/)	.
(8BBB/ 8BB/L	[4ee\ [4eee\	.
8AAA/ 8AA/J	.	.
=242	=242	=242
2GGG/ 2GG/	4.ee\] 4.eee\]	<
.	8dd#\ 8ddd#\	.
4GGG#/ 4GG#/	4ee\ 4eee\	.
=243	=243	=243
2AAA/ 2AA/	2c/ 2e/ 2f#/	>
4AAA#/ 4AA#/	4c#/ 4e/ 4f#/	.
=244	=244	=244
*	*^	*
2.BBB/ 2.BB/	4.f#/	2.A\ 2.d#\	pp
.	8a/L	.	.
.	8g/	.	.
.	8f#/J	.	.
*	*v	*v	*
=245	=245	=245
4EE/)	4G/ 4e/	.
4r;	4r;	.
==	==	==
*-	*-	*-
!!!ENC: Craig Stuart Sapp
!!!END: 2006/08/01/
!!!EEV: 2014/07/13/ (added ottavas)
